;FLAVOR:Marlin
;TIME:6003
;Filament used: 4.53375m
;Layer height: 0.24
;MINX:76.192
;MINY:15.292
;MINZ:0.2
;MAXX:258.445
;MAXY:53.534
;MAXZ:14.84
;Generated with Creality Slicer 4.8.2-254
M140 S60
M105
M190 S60
M104 S200
M105
M109 S200
M82 ;absolute extrusion mode

G28 ;Home

G92 E0 ;Reset Extruder
G1 Z2.0 F3000 ;Move Z Axis up
G1 X10.1 Y20 Z0.28 F5000.0 ;Move to start position
G1 X10.1 Y200.0 Z0.28 F1500.0 E15 ;Draw the first line
G1 X10.4 Y200.0 Z0.28 F5000.0 ;Move to side a little
G1 X10.4 Y20 Z0.28 F1500.0 E30 ;Draw the second line
G92 E0 ;Reset Extruder
G1 Z2.0 F3000 ;Move Z Axis up

G92 E0
G92 E0
G1 F3600 E-5
;LAYER_COUNT:62
;LAYER:0
M107
G0 F7500 X82.834 Y24.957 Z0.2
;TYPE:SKIRT
G1 F3600 E0
G1 F1500 X82.857 Y24.934 E0.00108
G1 X82.871 Y24.977 E0.00259
G1 X82.834 Y24.957 E0.00398
G0 F7500 X82.42 Y24.957
G1 F1500 X82.479 Y24.738 E0.01153
G1 X82.638 Y24.579 E0.01901
G1 X82.857 Y24.52 E0.02655
G1 X83.076 Y24.579 E0.03409
G1 X83.236 Y24.739 E0.04162
G1 X83.294 Y24.958 E0.04916
G1 X83.236 Y25.176 E0.05666
G1 X83.076 Y25.336 E0.06418
G1 X82.858 Y25.394 E0.07169
G1 X82.639 Y25.336 E0.07922
G1 X82.479 Y25.176 E0.08675
G1 X82.42 Y24.957 E0.09429
G0 F7500 X82.005 Y24.957
G1 F1500 X82.12 Y24.531 E0.10897
G1 X82.431 Y24.22 E0.1236
G1 X82.857 Y24.105 E0.13827
G1 X83.283 Y24.22 E0.15295
G1 X83.594 Y24.531 E0.16758
G1 X83.708 Y24.957 E0.18224
G1 X83.594 Y25.384 E0.19694
G1 X83.284 Y25.694 E0.21153
G1 X82.857 Y25.808 E0.22623
G1 X82.431 Y25.694 E0.24089
G1 X82.12 Y25.383 E0.25552
G1 X82.005 Y24.957 E0.2702
G0 F7500 X81.591 Y24.957
G1 F1500 X81.762 Y24.323 E0.29204
G1 X82.223 Y23.862 E0.31372
G1 X82.857 Y23.691 E0.33556
G1 X83.491 Y23.862 E0.3574
G1 X83.953 Y24.324 E0.37913
G1 X84.123 Y24.957 E0.40093
G1 X83.953 Y25.591 E0.42276
G1 X83.491 Y26.053 E0.4445
G1 X82.857 Y26.223 E0.46633
G1 X82.224 Y26.053 E0.48813
G1 X81.762 Y25.591 E0.50986
G1 X81.591 Y24.957 E0.5317
G0 F7500 X81.178 Y24.957
G1 F1500 X81.404 Y24.115 E0.5607
G1 X82.015 Y23.504 E0.58943
G1 X82.857 Y23.278 E0.61843
G1 X83.699 Y23.504 E0.64743
G1 X84.311 Y24.116 E0.67621
G1 X84.537 Y24.957 E0.70518
G1 X84.311 Y25.799 E0.73417
G1 X83.699 Y26.411 E0.76296
G1 X82.857 Y26.637 E0.79196
G1 X82.016 Y26.411 E0.82092
G1 X81.404 Y25.799 E0.84971
G1 X81.178 Y24.957 E0.8787
G0 F7500 X80.763 Y24.957
G1 F1500 X81.045 Y23.908 E0.91483
G1 X81.808 Y23.145 E0.95072
G1 X82.857 Y22.863 E0.98685
G1 X83.906 Y23.145 E1.02298
G1 X84.669 Y23.908 E1.05887
G1 X84.95 Y24.957 E1.09499
G1 X84.669 Y26.007 E1.13114
G1 X83.907 Y26.769 E1.16698
G1 X82.857 Y27.05 E1.20313
G1 X81.808 Y26.769 E1.23925
G1 X81.045 Y26.006 E1.27514
G1 X80.763 Y24.957 E1.31127
G0 F7500 X80.349 Y24.957
G1 F1500 X80.686 Y23.701 E1.35453
G1 X81.601 Y22.786 E1.39756
G1 X82.857 Y22.449 E1.44082
G1 X84.113 Y22.786 E1.48407
G1 X85.029 Y23.702 E1.52715
G1 X85.365 Y24.957 E1.57037
G1 X85.029 Y26.213 E1.61361
G1 X84.113 Y27.129 E1.6567
G1 X82.857 Y27.465 E1.69994
G1 X81.602 Y27.129 E1.74315
G1 X80.686 Y26.213 E1.78624
G1 X80.349 Y24.957 E1.82949
G1 F3600 E-3.17051
G0 F7500 X113.349 Y24.957
G1 F3600 E1.82949
G1 F1500 X113.686 Y23.701 E1.87274
G1 X114.601 Y22.786 E1.91578
G1 X115.857 Y22.449 E1.95903
G1 X117.113 Y22.786 E2.00228
G1 X118.029 Y23.702 E2.04537
G1 X118.365 Y24.957 E2.08858
G1 X118.029 Y26.213 E2.13183
G1 X117.113 Y27.129 E2.17491
G1 X115.857 Y27.465 E2.21816
G1 X114.602 Y27.129 E2.26137
G1 X113.686 Y26.213 E2.30445
G1 X113.349 Y24.957 E2.3477
G0 F7500 X113.763 Y24.957
G1 F1500 X114.045 Y23.908 E2.38383
G1 X114.808 Y23.145 E2.41972
G1 X115.857 Y22.863 E2.45585
G1 X116.906 Y23.145 E2.49198
G1 X117.669 Y23.908 E2.52787
G1 X117.95 Y24.957 E2.56399
G1 X117.669 Y26.007 E2.60014
G1 X116.907 Y26.769 E2.63598
G1 X115.857 Y27.05 E2.67214
G1 X114.808 Y26.769 E2.70826
G1 X114.045 Y26.006 E2.74414
G1 X113.763 Y24.957 E2.78027
G0 F7500 X114.178 Y24.957
G1 F1500 X114.404 Y24.115 E2.80927
G1 X115.015 Y23.504 E2.83801
G1 X115.857 Y23.278 E2.86701
G1 X116.699 Y23.504 E2.896
G1 X117.311 Y24.116 E2.92479
G1 X117.537 Y24.957 E2.95375
G1 X117.311 Y25.799 E2.98275
G1 X116.699 Y26.411 E3.01154
G1 X115.857 Y26.637 E3.04053
G1 X115.016 Y26.411 E3.0695
G1 X114.404 Y25.799 E3.09828
G1 X114.178 Y24.957 E3.12728
G0 F7500 X114.591 Y24.957
G1 F1500 X114.762 Y24.323 E3.14912
G1 X115.223 Y23.862 E3.1708
G1 X115.857 Y23.691 E3.19264
G1 X116.491 Y23.862 E3.21448
G1 X116.953 Y24.324 E3.23622
G1 X117.123 Y24.957 E3.25801
G1 X116.953 Y25.591 E3.27985
G1 X116.491 Y26.053 E3.30158
G1 X115.857 Y26.223 E3.32341
G1 X115.224 Y26.053 E3.34521
G1 X114.762 Y25.591 E3.36694
G1 X114.591 Y24.957 E3.38878
G0 F7500 X115.005 Y24.957
G1 F1500 X115.12 Y24.531 E3.40346
G1 X115.431 Y24.22 E3.41809
G1 X115.857 Y24.105 E3.43276
G1 X116.283 Y24.22 E3.44744
G1 X116.594 Y24.531 E3.46207
G1 X116.708 Y24.957 E3.47673
G1 X116.594 Y25.384 E3.49143
G1 X116.284 Y25.694 E3.50601
G1 X115.857 Y25.808 E3.52071
G1 X115.431 Y25.694 E3.53538
G1 X115.12 Y25.383 E3.55001
G1 X115.005 Y24.957 E3.56469
G0 F7500 X115.42 Y24.957
G1 F1500 X115.479 Y24.738 E3.57223
G1 X115.638 Y24.579 E3.57971
G1 X115.857 Y24.52 E3.58725
G1 X116.076 Y24.579 E3.5948
G1 X116.236 Y24.739 E3.60232
G1 X116.294 Y24.958 E3.60986
G1 X116.236 Y25.176 E3.61736
G1 X116.076 Y25.336 E3.62489
G1 X115.858 Y25.394 E3.63239
G1 X115.639 Y25.336 E3.63992
G1 X115.479 Y25.176 E3.64745
G1 X115.42 Y24.957 E3.65499
G0 F7500 X115.834 Y24.957
G1 F1500 X115.857 Y24.934 E3.65607
G1 X115.871 Y24.977 E3.65758
G1 X115.834 Y24.957 E3.65898
G1 F3600 E-1.34102
G0 F7500 X135.167 Y25.249
G0 X135.44 Y24.43
G0 X135.811 Y23.616
G0 X136.265 Y22.847
G0 X136.8 Y22.126
G0 X137.412 Y21.465
G0 X138.08 Y20.88
G0 X138.817 Y20.364
G0 X139.602 Y19.93
G0 X140.428 Y19.582
G0 X141.277 Y19.327
G0 X142.171 Y19.16
G0 X164.767 Y17.705
G0 X195.343 Y17.705
G0 X196.047 Y17.811
G0 X196.684 Y18.09
G0 X197.227 Y18.527
G0 X197.64 Y19.089
G0 X197.894 Y19.738
G0 X197.969 Y20.331
G0 X197.968 Y26.201
G0 X216.767 Y26.487
G1 F3600 E3.65898
G1 F1500 X218.14 Y24.144 E3.7493
G1 X220.851 Y24.16 E3.83947
G1 X222.193 Y26.517 E3.92968
G1 X220.82 Y28.86 E4.02
G1 X218.109 Y28.844 E4.11017
G1 X216.767 Y26.487 E4.20038
G0 F7500 X217.203 Y26.322
G1 F1500 X217.203 Y26.893 E4.21938
G1 X217.217 Y26.966 E4.22185
G1 X217.445 Y27.546 E4.24258
G1 X217.465 Y27.584 E4.244
G1 X217.771 Y28.043 E4.26235
G1 X217.815 Y28.091 E4.26452
G1 X218.512 Y28.627 E4.29376
G1 X218.601 Y28.665 E4.29698
G1 X219.264 Y28.776 E4.31934
G1 X219.297 Y28.779 E4.32044
G1 X219.663 Y28.779 E4.33261
G1 X219.696 Y28.776 E4.33372
G1 X220.359 Y28.665 E4.35608
G1 X220.448 Y28.627 E4.35929
G1 X221.145 Y28.091 E4.38854
G1 X221.189 Y28.043 E4.3907
G1 X221.495 Y27.584 E4.40905
G1 X221.515 Y27.546 E4.41048
G1 X221.743 Y26.966 E4.43121
G1 X221.757 Y26.893 E4.43368
G1 X221.757 Y26.322 E4.45267
G1 X221.754 Y26.288 E4.45381
G1 X221.648 Y25.68 E4.47433
G1 X221.617 Y25.603 E4.4771
G1 X221.261 Y25.069 E4.49844
G1 X221.237 Y25.039 E4.49972
G1 X220.85 Y24.651 E4.51795
G1 X220.797 Y24.613 E4.52011
G1 X220.182 Y24.306 E4.54298
G1 X220.116 Y24.286 E4.54527
G1 X219.503 Y24.216 E4.56579
G1 X219.457 Y24.216 E4.56732
G1 X218.844 Y24.286 E4.58784
G1 X218.778 Y24.306 E4.59014
G1 X218.163 Y24.613 E4.613
G1 X218.11 Y24.651 E4.61517
G1 X217.723 Y25.039 E4.63339
G1 X217.699 Y25.069 E4.63467
G1 X217.343 Y25.603 E4.65602
G1 X217.312 Y25.68 E4.65878
G1 X217.206 Y26.288 E4.67931
G1 X217.203 Y26.322 E4.68044
G1 F3600 E-0.31956
G0 F7500 X249.767 Y26.517
G1 F3600 E4.68044
G1 F1500 X251.109 Y24.16 E4.77065
G1 X253.82 Y24.144 E4.86082
G1 X255.193 Y26.487 E4.95114
G1 X253.851 Y28.844 E5.04135
G1 X251.14 Y28.86 E5.13152
G1 X249.767 Y26.517 E5.22185
G0 F7500 X250.203 Y26.322
G1 F1500 X250.203 Y26.893 E5.24084
G1 X250.217 Y26.966 E5.24331
G1 X250.445 Y27.546 E5.26404
G1 X250.465 Y27.584 E5.26547
G1 X250.771 Y28.043 E5.28382
G1 X250.815 Y28.091 E5.28598
G1 X251.512 Y28.627 E5.31523
G1 X251.601 Y28.665 E5.31844
G1 X252.264 Y28.776 E5.3408
G1 X252.297 Y28.779 E5.3419
G1 X252.663 Y28.779 E5.35408
G1 X252.696 Y28.776 E5.35518
G1 X253.359 Y28.665 E5.37754
G1 X253.448 Y28.627 E5.38076
G1 X254.145 Y28.091 E5.41
G1 X254.189 Y28.043 E5.41217
G1 X254.495 Y27.584 E5.43052
G1 X254.515 Y27.546 E5.43194
G1 X254.743 Y26.966 E5.45267
G1 X254.757 Y26.893 E5.45514
G1 X254.757 Y26.322 E5.47414
G1 X254.754 Y26.288 E5.47527
G1 X254.648 Y25.68 E5.4958
G1 X254.617 Y25.603 E5.49856
G1 X254.261 Y25.069 E5.5199
G1 X254.237 Y25.039 E5.52118
G1 X253.85 Y24.651 E5.53941
G1 X253.797 Y24.613 E5.54158
G1 X253.182 Y24.306 E5.56444
G1 X253.116 Y24.286 E5.56673
G1 X252.503 Y24.216 E5.58725
G1 X252.457 Y24.216 E5.58878
G1 X251.844 Y24.286 E5.60931
G1 X251.778 Y24.306 E5.6116
G1 X251.163 Y24.613 E5.63446
G1 X251.11 Y24.651 E5.63663
G1 X250.723 Y25.039 E5.65486
G1 X250.699 Y25.069 E5.65613
G1 X250.343 Y25.603 E5.67748
G1 X250.312 Y25.68 E5.68024
G1 X250.206 Y26.288 E5.70077
G1 X250.203 Y26.322 E5.7019
G1 F3600 E0.7019
;MESH:Bearing_holder_test_bottom.stl
G0 F7500 X222.8 Y26.349
G0 X221.168 Y23.622
G0 X217.83 Y23.6
G0 X216.135 Y26.356
G0 X197.97 Y26.374
G0 X197.969 Y20.331
G0 X197.863 Y19.627
G0 X197.584 Y18.99
G0 X197.147 Y18.447
G0 X196.585 Y18.034
G0 X195.936 Y17.78
G0 X195.343 Y17.705
G0 X164.767 Y17.705
G0 X142.171 Y19.16
G0 X141.277 Y19.327
G0 X140.428 Y19.582
G0 X139.602 Y19.93
G0 X138.817 Y20.364
G0 X138.08 Y20.88
G0 X137.412 Y21.465
G0 X136.8 Y22.126
G0 X136.265 Y22.847
G0 X135.811 Y23.616
G0 X135.44 Y24.43
G0 X135.154 Y25.292
G0 X134.936 Y26.439
G0 X118.597 Y26.456
G0 X113.205 Y26.49
G0 X85.51 Y26.491
G0 X86.814 Y27.243
G0 X84.96 Y28.597
G0 X82.857 Y29.328
;TYPE:WALL-INNER
G1 F3600 E5.7019
G1 F1500 X85.043 Y28.743 E5.77717
G1 X86.643 Y27.143 E5.85243
G1 X87.228 Y24.957 E5.92769
G1 X86.643 Y22.771 E6.00296
G1 X85.043 Y21.172 E6.07819
G1 X82.857 Y20.586 E6.15347
G1 X80.671 Y21.172 E6.22874
G1 X79.072 Y22.771 E6.30395
G1 X78.486 Y24.957 E6.37923
G1 X79.072 Y27.143 E6.4545
G1 X80.671 Y28.743 E6.52974
G1 X82.857 Y29.328 E6.605
G0 F7500 X82.857 Y28.914
;TYPE:WALL-OUTER
G1 F1500 X84.836 Y28.384 E6.67314
G1 X86.284 Y26.936 E6.74125
G1 X86.814 Y24.957 E6.80939
G1 X86.284 Y22.978 E6.87754
G1 X84.836 Y21.531 E6.94562
G1 X82.857 Y21 E7.01377
G1 X80.878 Y21.531 E7.08192
G1 X79.431 Y22.978 E7.14998
G1 X78.9 Y24.957 E7.21813
G1 X79.431 Y26.936 E7.28628
G1 X80.878 Y28.384 E7.35437
G1 X82.857 Y28.914 E7.42251
G0 F7500 X82.857 Y29.354
G1 F3600 E2.42251
G0 F7500 X84.96 Y28.597
G0 X86.814 Y27.243
G0 X85.51 Y26.491
G0 X113.205 Y26.49
G0 X111.901 Y27.243
G0 X113.754 Y28.597
G0 X115.857 Y29.328
;TYPE:WALL-INNER
G1 F3600 E7.42251
G1 F1500 X118.043 Y28.743 E7.49778
G1 X119.643 Y27.143 E7.57304
G1 X120.228 Y24.957 E7.6483
G1 X119.643 Y22.771 E7.72357
G1 X118.043 Y21.172 E7.7988
G1 X115.857 Y20.586 E7.87408
G1 X113.671 Y21.172 E7.94935
G1 X112.072 Y22.771 E8.02456
G1 X111.486 Y24.957 E8.09983
G1 X112.072 Y27.143 E8.17511
G1 X113.671 Y28.743 E8.25034
G1 X115.857 Y29.328 E8.32561
G0 F7500 X115.857 Y28.914
;TYPE:WALL-OUTER
G1 F1500 X117.836 Y28.384 E8.39375
G1 X119.284 Y26.936 E8.46186
G1 X119.814 Y24.957 E8.53
G1 X119.284 Y22.978 E8.59814
G1 X117.836 Y21.531 E8.66623
G1 X115.857 Y21 E8.73438
G1 X113.878 Y21.531 E8.80253
G1 X112.431 Y22.978 E8.87059
G1 X111.9 Y24.957 E8.93874
G1 X112.431 Y26.936 E9.00689
G1 X113.878 Y28.384 E9.07498
G1 X115.857 Y28.914 E9.14312
G0 F7500 X115.857 Y29.354
G1 F3600 E4.14312
G0 F7500 X118.143 Y28.914
G0 X121.047 Y28.914
G0 X121.257 Y33.357
;TYPE:WALL-INNER
G1 F3600 E9.14312
G1 F1500 X77.656 Y33.357 E10.59329
G1 X77.457 Y33.357 E10.59991
G1 X77.457 Y33.158 E10.6042
G1 X77.458 Y22.723 E10.95126
G1 X77.595 Y22.093 E10.97271
G1 X77.946 Y21.622 E10.99225
G1 X78.577 Y21.275 E11.0162
G1 X80.117 Y20.521 E11.07323
G1 X81.421 Y19.217 E11.13456
G1 X82.19 Y17.645 E11.19277
G1 X82.52 Y17.047 E11.21549
G1 X82.993 Y16.695 E11.2351
G1 X83.627 Y16.557 E11.25668
G1 X115.09 Y16.558 E12.30314
G1 X115.723 Y16.696 E12.32469
G1 X116.194 Y17.046 E12.34421
G1 X116.54 Y17.676 E12.36811
G1 X117.293 Y19.217 E12.42516
G1 X118.597 Y20.521 E12.48649
G1 X120.164 Y21.287 E12.54451
G1 X120.767 Y21.62 E12.56742
G1 X121.119 Y22.093 E12.58703
G1 X121.257 Y22.728 E12.60864
G1 X121.257 Y33.357 E12.96216
G0 F7500 X121.657 Y33.757
;TYPE:WALL-OUTER
G1 F1500 X77.057 Y33.757 E14.44556
G1 X77.058 Y22.68 E14.81399
G1 X77.222 Y21.923 E14.83975
G1 X77.678 Y21.312 E14.86511
G1 X78.384 Y20.924 E14.8919
G1 X79.881 Y20.191 E14.94734
G1 X81.091 Y18.981 E15.00425
G1 X81.831 Y17.469 E15.06024
G1 X82.212 Y16.777 E15.08652
G1 X82.823 Y16.322 E15.11185
G1 X83.584 Y16.157 E15.13775
G1 X115.134 Y16.158 E16.18711
G1 X115.893 Y16.323 E16.21295
G1 X116.503 Y16.777 E16.23824
G1 X116.891 Y17.484 E16.26506
G1 X117.623 Y18.981 E16.32048
G1 X118.833 Y20.191 E16.3774
G1 X120.346 Y20.931 E16.43342
G1 X121.037 Y21.312 E16.45966
G1 X121.492 Y21.923 E16.485
G1 X121.657 Y22.685 E16.51093
G1 X121.657 Y33.757 E16.87919
G0 F7500 X121.387 Y33.487
G0 X121.147 Y32.967
G0 X120.867 Y32.967
;TYPE:SKIN
G1 F1500 X77.847 Y32.967 E18.31004
G1 X77.848 Y22.764 E18.64939
G1 X77.957 Y22.259 E18.66658
G1 X78.208 Y21.924 E18.6805
G1 X78.757 Y21.622 E18.70134
G1 X80.347 Y20.843 E18.76023
G1 X81.743 Y19.447 E18.82589
G1 X82.541 Y17.817 E18.88625
G1 X82.822 Y17.307 E18.90562
G1 X83.156 Y17.059 E18.91946
G1 X83.669 Y16.947 E18.93692
G1 X115.047 Y16.948 E19.98056
G1 X115.557 Y17.059 E19.99792
G1 X115.894 Y17.31 E20.01189
G1 X116.189 Y17.847 E20.03227
G1 X116.971 Y19.447 E20.0915
G1 X118.367 Y20.843 E20.15717
G1 X119.993 Y21.638 E20.21737
G1 X120.507 Y21.922 E20.2369
G1 X120.755 Y22.256 E20.25073
G1 X120.867 Y22.769 E20.2682
G1 X120.867 Y32.967 E20.60739
G1 F3600 E15.60739
G0 F7500 X121.147 Y32.967
G0 X121.047 Y28.841
G0 X119.631 Y27.424
G0 X118.103 Y28.841
G0 X118.245 Y29.092
G1 F3600 E20.60739
G1 F1500 X119.992 Y27.345 E20.68956
G1 X120.632 Y24.957 E20.77179
G1 X119.992 Y22.569 E20.85402
G1 X118.245 Y20.823 E20.93617
G1 X115.857 Y20.182 E21.0184
G1 X113.469 Y20.823 E21.10064
G1 X111.723 Y22.569 E21.18277
G1 X111.082 Y24.957 E21.265
G1 X111.723 Y27.345 E21.34724
G1 X113.469 Y29.092 E21.42939
G1 X115.857 Y29.732 E21.51162
G1 X118.245 Y29.092 E21.59385
G1 F3600 E16.59385
G0 F7500 X118.103 Y28.841
G0 X115.857 Y29.161
G0 X113.754 Y28.597
G0 X112.218 Y27.06
G0 X111.289 Y24.957
G0 X112.794 Y24.957
G0 X85.92 Y24.957
G0 X87.425 Y24.957
G0 X87.632 Y24.957
G1 F3600 E21.59385
G1 F1500 X86.992 Y22.569 E21.67607
G1 X85.245 Y20.823 E21.75822
G1 X82.857 Y20.182 E21.84046
G1 X80.469 Y20.823 E21.9227
G1 X78.723 Y22.569 E22.00482
G1 X78.082 Y24.957 E22.08706
G1 X78.723 Y27.345 E22.1693
G1 X80.469 Y29.092 E22.25145
G1 X82.857 Y29.732 E22.33368
G1 X85.245 Y29.092 E22.4159
G1 X86.992 Y27.345 E22.49808
G1 X87.632 Y24.957 E22.58031
G1 F3600 E17.58031
G0 F7500 X87.342 Y24.957
G0 X86.497 Y27.06
G0 X84.96 Y28.597
G0 X82.857 Y29.161
G0 X80.571 Y28.914
G0 X81.324 Y27.61
G0 X80.571 Y34.622
G0 X80.571 Y33.147
G0 X78.627 Y33.247
G0 X78.627 Y32.806
G1 F3600 E22.58031
G1 F1500 X78.006 Y32.186 E22.60949
G0 F7500 X78.006 Y31.62
G1 F1500 X79.193 Y32.806 E22.6653
G0 F7500 X79.758 Y32.806
G1 F1500 X78.006 Y31.054 E22.74771
G0 F7500 X78.006 Y30.489
G1 F1500 X80.324 Y32.806 E22.85672
G0 F7500 X80.89 Y32.806
G1 F1500 X78.006 Y29.923 E22.99235
G0 F7500 X78.006 Y29.357
G1 F1500 X81.455 Y32.806 E23.15458
G0 F7500 X82.021 Y32.806
G1 F1500 X78.006 Y28.791 E23.34343
G0 F7500 X78.006 Y28.226
G1 F1500 X82.587 Y32.806 E23.55889
G0 F7500 X83.152 Y32.806
G1 F1500 X78.006 Y27.66 E23.80094
G0 F7500 X78.006 Y27.094
G1 F1500 X83.718 Y32.806 E24.06961
G0 F7500 X84.284 Y32.806
G1 F1500 X80.832 Y29.355 E24.23196
G0 F7500 X81.605 Y29.562
G1 F1500 X84.849 Y32.806 E24.38455
G0 F7500 X85.415 Y32.806
G1 F1500 X82.377 Y29.769 E24.52742
G0 F7500 X83.026 Y29.851
G1 F1500 X85.981 Y32.806 E24.66642
G0 F7500 X86.547 Y32.806
G1 F1500 X83.472 Y29.732 E24.81103
G0 F7500 X83.918 Y29.612
G1 F1500 X87.112 Y32.806 E24.96127
G0 F7500 X87.678 Y32.806
G1 F1500 X84.364 Y29.493 E25.11713
G0 F7500 X84.811 Y29.373
G1 F1500 X88.244 Y32.806 E25.2786
G0 F7500 X88.809 Y32.806
G1 F1500 X85.257 Y29.254 E25.44568
G0 F7500 X85.565 Y28.997
G1 F1500 X89.375 Y32.806 E25.62487
G0 F7500 X89.941 Y32.806
G1 F1500 X85.848 Y28.714 E25.81736
G0 F7500 X86.131 Y28.431
